svgs/pxpay.svg

<svg width="192" height="192" viewBox="0 0 192 192" fill="none" xmlns="http://www.w3.org/2000/svg">
<path d="M50.8185 88.1165V52.7326M50.8185 52.7326C50.8185 63.0784 59.2054 71.4653 69.5512 71.4653C79.8969 71.4653 88.2838 63.0784 88.2838 52.7326C88.2838 42.3869 79.8969 34 69.5512 34C59.2054 34 50.8185 42.3869 50.8185 52.7326Z" stroke="black" stroke-width="12" stroke-linecap="round"/>
<path d="M140.956 67.3025L108.159 34.505M108.159 66.7974L140.956 34" stroke="black" stroke-width="12" stroke-linecap="round"/>
<path d="M22 157.678V122.295M22 122.295C22 132.64 30.3869 141.027 40.7326 141.027C51.0784 141.027 59.4653 132.64 59.4653 122.295C59.4653 111.949 51.0784 103.562 40.7326 103.562C30.3869 103.562 22 111.949 22 122.295Z" stroke="black" stroke-width="12" stroke-linecap="round"/>
<path d="M116.805 141.027V103.562M116.805 122.295C116.805 132.64 108.419 141.027 98.0728 141.027C87.727 141.027 79.3401 132.64 79.3401 122.295C79.3401 111.949 87.727 103.562 98.0728 103.562C108.419 103.562 116.805 111.949 116.805 122.295Z" stroke="black" stroke-width="12" stroke-linecap="round"/>
<path d="M153.064 132.711L136.68 105.902M146.142 155.624L170 104.498" stroke="black" stroke-width="12" stroke-linecap="round"/>
</svg>

<svg xmlns="http://www.w3.org/2000/svg" width="192" height="192" fill="none" viewBox="0 0 192 192"><path stroke="#000" stroke-linecap="round" stroke-width="12" d="M50.819 88.117V52.733m0 0c0 10.345 8.386 18.732 18.732 18.732s18.733-8.387 18.733-18.732C88.284 42.387 79.897 34 69.55 34s-18.73 8.387-18.73 18.733Zm90.137 14.57-32.797-32.798m0 32.292L140.956 34M22 157.678v-35.383m0 0c0 10.345 8.387 18.732 18.733 18.732s18.732-8.387 18.732-18.732c0-10.346-8.387-18.733-18.732-18.733-10.346 0-18.733 8.387-18.733 18.733Zm94.805 18.732v-37.465m0 18.733c0 10.345-8.386 18.732-18.732 18.732S79.34 132.64 79.34 122.295c0-10.346 8.387-18.733 18.733-18.733s18.732 8.387 18.732 18.733Zm36.259 10.416-16.384-26.809m9.462 49.722L170 104.498"/></svg>
